X:88
T:Chaconne in D Major
C:Pachelbel, J.
M:4/4
L:1/8
Q:1/4=60
K:D
|:A2|D4 D4|D4 A2 B2|G4 G4|G4 D2 E2|
F4 F4|F4 C2 D2|E4 E4|E4 B,2 C2|
D4 D4|D4 A2 B2|G4 G4|G4 D2 E2|
F4 F4|F4 C2 D2|E4 E4|D8:|

